svgs/sharp-light/boxes-stacked.svg

<svg xmlns="http://www.w3.org/2000/svg" viewBox="0 0 576 512"><!--! Font Awesome Pro 6.6.0 by @fontawesome - https://fontawesome.com License - https://fontawesome.com/license (Commercial License) Copyright 2024 Fonticons, Inc. --><path d="M416 32l0 160 32 0 0-160 0-32L416 0 352 0 320 0 256 0 224 0 160 0 128 0l0 32 0 160 32 0 0-160 64 0 0 64 0 32 32 0 64 0 32 0 0-32 0-64 64 0zM256 32l64 0 0 64-64 0 0-64zm96 480l192 0 32 0 0-32 0-224 0-32-32 0-64 0-32 0-64 0-32 0 0 32 0 64 0 32 32 0 64 0 32 0 0-32 0-64 64 0 0 224-192 0 0 32zm32-256l64 0 0 64-64 0 0-64zM288 480L32 480l0-224 64 0 0 64 0 32 32 0 64 0 32 0 0-32 0-64 64 0 0 224zM128 320l0-64 64 0 0 64-64 0zm160-96l-64 0-32 0-64 0-32 0-64 0L0 224l0 32L0 480l0 32 32 0 256 0 32 0 0-32 0-224 0-32-32 0z"/></svg>

<svg xmlns="http://www.w3.org/2000/svg" viewBox="0 0 576 512"><!--! Font Awesome Pro 6.4.2 by @fontawesome - https://fontawesome.com License - https://fontawesome.com/license (Commercial License) Copyright 2023 Fonticons, Inc. --><path d="M416 32V192h32V32 0H416 352 320 256 224 160 128V32 192h32V32h64V96v32h32 64 32V96 32h64zM256 32h64V96H256V32zm96 480H544h32V480 256 224H544 480 448 384 352l0 128h32 64 32V320 256h64V480H352v32zm32-256h64v64H384V256zM288 480H32V256H96v64 32h32 64 32V320 256h64V480zM128 320V256h64v64H128zm160-96H224 192 128 96 32 0v32V480v32H32 288h32V480 256 224H288z"/></svg>
